X: 12
T:The Mullingar Races
M:4/4
K:D
|:DEFD EA, A,2|DEFA Bcde|fgfe d2 dB|AGFA GFEF|
DEFD EA, A,2|DEFA Bcde|fgfe dBAG|FGEF D2 D2:|
|:d2 fd Adfa|afdf edBc|d2 fd Afdf|Beed egfe|
d2 fd Adfa|afdf edBc|dgfe dBAG|FGEF D2 D2:|

